X:1
T: The Dairy Maid
C:
R:Jig
Q:180
K:G
M:6/8
L:1/16
AG|F2D2D2 F2E2F2|D2G2G2 G4A2|B2A2B2 G2B2d2|c2A2G2 F4A2|B2A2B2 B2c2d2|c2B2c2 A2B2c2|def2d2 c2A2F2|A2G2G2 G4AG|
F2D2D2 F2E2F2|D2G2G2 G4A2|B2A2B2 G2B2d2|c2A2G2 F4A2|B2A2B2 B2c2d2|c2B2c2 A2B2c2|def2d2 c2A2F2|A2G2G2 G4d2|
g2f2e2 f2d2c2|B2G2G2 G4g2|f2e2f2 def2d2|c2A2G2 F4c2|B2A2B2 B2c2d2|c2B2c2 A2B2c2|def2d2 c2A2F2|A2G2G2 G4d2|
g2f2e2 f2d2c2|B2G2G2 G4g2|f2e2f2 def2d2|c2A2G2 F4c2|B2A2B2 B2c2d2|c2B2c2 A2B2c2|def2d2 c2A2F2|A2G2G2 G4||
